Assets/logo.svg

<svg width="114" height="25" viewBox="0 0 114 25" fill="none" xmlns="http://www.w3.org/2000/svg">
<path d="M13.8619 10.9174H27.3995V24.0429H21.8196L21.1538 18.4313C20.5198 20.4392 19.389 21.9293 17.7615 22.9016C16.134 23.8739 14.1472 24.36 11.8011 24.36C9.66638 24.36 7.76414 23.8844 6.09439 22.9333C4.44578 21.9822 3.14591 20.6189 2.19479 18.8435C1.2648 17.068 0.799805 14.9967 0.799805 12.6295C0.799805 8.84611 1.93058 5.85536 4.19214 3.65721C6.4537 1.45906 9.97286 0.359985 14.7496 0.359985C17.4762 0.359985 19.8751 0.803842 21.9464 1.69156C24.0389 2.57927 25.8143 3.95312 27.2727 5.81309C26.3216 6.29922 24.4616 7.27148 21.6928 8.72987L20.9002 9.17373C20.0759 8.34942 19.1142 7.73647 18.0151 7.33489C16.9161 6.91217 15.7536 6.7008 14.5277 6.7008C12.4986 6.7008 10.9874 7.23977 9.99399 8.31771C9.0006 9.37452 8.5039 10.685 8.5039 12.249C8.5039 13.9399 9.0323 15.3032 10.0891 16.3389C11.167 17.3745 12.8051 17.8924 15.0032 17.8924C15.9544 17.8924 16.8738 17.755 17.7615 17.4802C18.6703 17.2054 19.4312 16.7299 20.0442 16.0535H13.8619V10.9174Z" fill="black"/>
<path d="M49.9394 24.0429C49.5378 22.8382 48.9989 21.327 48.3225 19.5093H38.2089L36.6237 24.0429H28.666L37.5431 1.02577H49.2102L58.1508 24.0429H49.9394ZM46.5154 14.5634C45.7122 12.3441 44.8879 10.1248 44.0425 7.90556L43.2816 5.8448C42.5418 7.76818 41.4533 10.6744 40.016 14.5634H46.5154Z" fill="black"/>
<path d="M85.3009 8.69816C85.3009 10.537 84.8465 12.0905 83.9376 13.3587C83.0499 14.6268 81.5175 15.5462 79.3405 16.1169C79.5942 16.4551 79.7738 16.7193 79.8795 16.9095L85.0156 24.0429H76.392C75.462 22.3098 73.9931 19.858 71.9852 16.6876H67.3247V24.0429H59.8425C60.0116 19.9425 60.0961 16.1064 60.0961 12.5344C60.0961 8.96236 60.0116 5.12617 59.8425 1.02577H67.3247V1.05748H73.824C78.0935 1.05748 81.0737 1.7444 82.7646 3.11824C84.4554 4.49209 85.3009 6.35206 85.3009 8.69816ZM67.3247 7.14466V10.7589H71.6047C73.4013 10.7589 74.754 10.7061 75.6628 10.6004C76.5928 10.4736 77.2375 10.2834 77.5968 10.0297C77.9561 9.7761 78.1358 9.40622 78.1358 8.92009C78.1358 8.4551 77.9667 8.09578 77.6285 7.84215C77.2903 7.58852 76.6562 7.40886 75.7263 7.30318C74.7963 7.1975 73.4224 7.14466 71.6047 7.14466H67.3247Z" fill="black"/>
<path d="M97.9766 0.677026C101.95 0.677026 105.089 1.16316 107.393 2.13541C109.697 3.08654 111.303 4.41811 112.212 6.13013C113.142 7.82102 113.607 9.90292 113.607 12.3758C113.607 14.7219 113.078 16.7721 112.021 18.5264C110.965 20.2807 109.379 21.644 107.266 22.6163C105.152 23.5674 102.553 24.0429 99.4667 24.0429C97.5856 24.0429 95.6727 24.0429 93.7282 24.0429C91.7837 24.0429 89.8181 24.0324 87.8313 24.0112C88.0004 19.8474 88.0849 15.969 88.0849 12.3758C88.0849 8.74044 88.0004 4.94651 87.8313 0.994067C90.3465 0.782706 93.7282 0.677026 97.9766 0.677026ZM100.354 17.7338C102.32 17.7338 103.63 17.2583 104.286 16.3071C104.941 15.356 105.269 14.0456 105.269 12.3758C105.269 10.7695 104.92 9.46963 104.222 8.47623C103.546 7.48284 102.257 6.98614 100.354 6.98614C98.3042 6.98614 96.7718 7.04955 95.7573 7.17637V17.7338H100.354Z" fill="black"/>
</svg>

<?xml version="1.0" encoding="utf-8"?>
<!-- Generator: Adobe Illustrator 24.1.0, SVG Export Plug-In . SVG Version: 6.00 Build 0)  -->
<svg version="1.1" id="Layer_1" xmlns="http://www.w3.org/2000/svg" xmlns:xlink="http://www.w3.org/1999/xlink" x="0px" y="0px"
	 viewBox="0 0 114 25" style="enable-background:new 0 0 114 25;" xml:space="preserve">
<path d="M13.9,10.9h13.5V24h-5.6l-0.7-5.6c-0.6,2-1.8,3.5-3.4,4.5c-1.6,1-3.6,1.5-6,1.5c-2.1,0-4-0.5-5.7-1.4
	c-1.6-1-2.9-2.3-3.9-4.1c-0.9-1.8-1.4-3.8-1.4-6.2c0-3.8,1.1-6.8,3.4-9S10,0.4,14.7,0.4c2.7,0,5.1,0.4,7.2,1.3
	C24,2.6,25.8,4,27.3,5.8c-1,0.5-2.8,1.5-5.6,2.9l-0.8,0.4c-0.8-0.8-1.8-1.4-2.9-1.8c-1.1-0.4-2.3-0.6-3.5-0.6c-2,0-3.5,0.5-4.5,1.6
	c-1,1.1-1.5,2.4-1.5,3.9c0,1.7,0.5,3.1,1.6,4.1c1.1,1,2.7,1.6,4.9,1.6c1,0,1.9-0.1,2.8-0.4c0.9-0.3,1.7-0.8,2.3-1.4h-6.2V10.9z"/>
<path d="M49.9,24c-0.4-1.2-0.9-2.7-1.6-4.5H38.2L36.6,24h-8l8.9-23h11.7l8.9,23H49.9z M46.5,14.6c-0.8-2.2-1.6-4.4-2.5-6.7l-0.8-2.1
	c-0.7,1.9-1.8,4.8-3.3,8.7H46.5z"/>
<path d="M85.3,8.7c0,1.8-0.5,3.4-1.4,4.7c-0.9,1.3-2.4,2.2-4.6,2.8c0.3,0.3,0.4,0.6,0.5,0.8L85,24h-8.6c-0.9-1.7-2.4-4.2-4.4-7.4
	h-4.7V24h-7.5c0.2-4.1,0.3-7.9,0.3-11.5C60.1,9,60,5.1,59.8,1h7.5v0h6.5c4.3,0,7.2,0.7,8.9,2.1C84.5,4.5,85.3,6.4,85.3,8.7z
	 M67.3,7.1v3.6h4.3c1.8,0,3.1-0.1,4.1-0.2c0.9-0.1,1.6-0.3,1.9-0.6c0.4-0.3,0.5-0.6,0.5-1.1c0-0.5-0.2-0.8-0.5-1.1
	c-0.3-0.3-1-0.4-1.9-0.5c-0.9-0.1-2.3-0.2-4.1-0.2H67.3z"/>
<path d="M98,0.7c4,0,7.1,0.5,9.4,1.5c2.3,1,3.9,2.3,4.8,4c0.9,1.7,1.4,3.8,1.4,6.2c0,2.3-0.5,4.4-1.6,6.2c-1.1,1.8-2.6,3.1-4.8,4.1
	c-2.1,1-4.7,1.4-7.8,1.4c-1.9,0-3.8,0-5.7,0c-1.9,0-3.9,0-5.9,0c0.2-4.2,0.3-8,0.3-11.6c0-3.6-0.1-7.4-0.3-11.4
	C90.3,0.8,93.7,0.7,98,0.7z M100.4,17.7c2,0,3.3-0.5,3.9-1.4c0.7-1,1-2.3,1-3.9c0-1.6-0.3-2.9-1-3.9c-0.7-1-2-1.5-3.9-1.5
	c-2,0-3.6,0.1-4.6,0.2v10.6H100.4z"/>
</svg>
